X:8
T:Saddle the Pony
T:Priests Leap, The
M:6/8
Z:Boston
R:jig
K:G
D|GBA G2 B|def gdB|GBA G2B|AFD AFD|GBA G2 B|def gfg|edB dBA|BGG G2:|
d|efe edB|def gfg|efe edB|dBA ABd|efe edB|def gfg|edB dBA|BGG G2:|
<end>
<start>
